src/assets/stack/heroku.svg

<svg xmlns="http://www.w3.org/2000/svg" viewBox="0 0 72 80">
  <path fill="#430098" d="M64.8 0H7.2A7.2 7.2 0 000 7.2v65.6A7.2 7.2 0 007.2 80h57.6a7.2 7.2 0 007.2-7.2V7.2A7.2 7.2 0 0064.8 0zM18 68V52l9 8-9 8zm28 0V44.11c-.039-1.867-.938-4.11-5-4.11-8.134 0-17.258 4.091-17.349 4.132L18 46.692V12h8v22.711C29.994 33.411 35.577 32 41 32c4.945 0 7.905 1.944 9.517 3.575C53.958 39.055 54.005 43.488 54 44v24h-8zm2-43h-8c3.144-4.125 5.118-8.466 6-13h8c-.54 4.544-2.382 8.9-6 13z"/>
</svg>

<svg xmlns="http://www.w3.org/2000/svg" width="72" height="80" viewBox="0 0 72 80">
  <path fill="#430098" d="M64.8,0 L7.2,0 C3.224,0 0,3.224 0,7.2 L0,72.8 C0,76.776 3.224,80 7.2,80 L64.8,80 C68.776,80 72,76.776 72,72.8 L72,7.2 C72,3.224 68.776,0 64.8,0 Z M18,68 L18,52 L27,60 L18,68 Z M46,68 L46,44.11 C45.961,42.243 45.062,40 41,40 C32.866,40 23.742,44.091 23.651,44.132 L18,46.692 L18,12 L26,12 L26,34.711 C29.994,33.411 35.577,32 41,32 C45.945,32 48.905,33.944 50.517,35.575 C53.958,39.055 54.005,43.488 54.0002258,44 L54.0002258,68 L46,68 Z M48,25 L40,25 C43.144,20.875 45.118,16.534 46,12 L54,12 C53.46,16.544 51.618,20.9 48,25 Z"/>
</svg>
